X: 30604
T: One Rose
R: waltz
M: 3/4
K: Amajor
|:e2 c3B|A2 B2 c2|d2 e2 e>a|f<e e2 e2|
e2 c2 c>B|AE E2 E2|FB3 B>c|1 B2 c2 d2:|2 A4 fg||
|:a2 g2 g>a|b2 a2 g2|f2 g2 a2|e<c c2 c>e|
e2 c2 c>B|A<E E2 E2|FB3 B>c|B4 a2|
f2 g2 a2|e<a a2 a>c|d2 e2 e>f|e<c c2 (3ABc|
d2 e2 e>f|e<c c2 (3ABc|B2 A3G|A4 cd||

